images/supermarket.svg

<?xml version="1.0" encoding="UTF-8" standalone="no"?>
<svg xmlns:dc="http://purl.org/dc/elements/1.1/" xmlns:cc="http://creativecommons.org/ns#" xmlns:rdf="http://www.w3.org/1999/02/22-rdf-syntax-ns#" xmlns:svg="http://www.w3.org/2000/svg" xmlns="http://www.w3.org/2000/svg" xmlns:sodipodi="http://sodipodi.sourceforge.net/DTD/sodipodi-0.dtd" xmlns:inkscape="http://www.inkscape.org/namespaces/inkscape" version="1.1" id="svg2" viewBox="0 0 14 14" height="14" width="14" sodipodi:docname="supermarket.svg" inkscape:version="0.92.3 (2405546, 2018-03-11)">
  <sodipodi:namedview pagecolor="#ffffff" bordercolor="#666666" borderopacity="1" objecttolerance="10" gridtolerance="10" guidetolerance="10" inkscape:pageopacity="0" inkscape:pageshadow="2" inkscape:window-width="1881" inkscape:window-height="1051" id="namedview2076" showgrid="false" inkscape:zoom="16.857143" inkscape:cx="-3.4703389" inkscape:cy="7.0000001" inkscape:window-x="0" inkscape:window-y="0" inkscape:window-maximized="1" inkscape:current-layer="svg2" inkscape:pagecheckerboard="true" />
  <metadata id="metadata30">
    <rdf:RDF>
      <cc:Work rdf:about="">
        <dc:format>image/svg+xml</dc:format>
        <dc:type rdf:resource="http://purl.org/dc/dcmitype/StillImage" />
        <dc:title></dc:title>
      </cc:Work>
    </rdf:RDF>
  </metadata>
  <defs id="defs28" />
  <path id="outline" d="M 13.412109,1.171875 A 0.55339859,0.55339859 0 0 0 13.25,1.1992188 L 11.767578,1.75 L 11.5,3 H 0 L 1,9 L 10,9.9003906 V 11 H 1.5 A 0.5,0.5 0 0 0 1.5,12 H 2.5195312 A 1,1 0 0 1 2.5195312,12.001953 A 1,1 0 0 0 2.5,12.199219 A 1,1 0 0 0 3.5,13.199219 A 1,1 0 0 0 4.5,12.199219 A 1,1 0 0 0 4.4785156,12 H 8.5195312 A 1,1 0 0 1 8.5195312,12.001953 A 1,1 0 0 0 8.5,12.199219 A 1,1 0 0 0 9.5,13.199219 A 1,1 0 0 0 10.5,12.199219 A 1,1 0 0 0 10.478516,12 H 11 V 10 L 12.5,3 L 12.599609,2.5996094 L 13.599609,2.25 A 0.55339859,0.55339859 0 0 0 13.412109,1.171875 Z M 1.1679688,4 H 3.5 V 5 H 1.3457031 Z M 4,4 H 5.5 V 5 H 4 Z M 6,4 H 7.5 V 5 H 6 Z M 8,4 H 9.5 V 5 H 8 Z M 10,4 H 11.285156 L 11.074219,5 H 10 Z M 1.4355469,5.5 H 3.5 V 7 H 1.703125 Z M 4,5.5 H 5.5 V 7 H 4 Z M 6,5.5 H 7.5 V 7 H 6 Z M 8,5.5 H 9.5 V 7 H 8 Z M 10,5.5 H 10.96875 L 10.652344,7 H 10 Z M 1.7929688,7.5 H 3.5 V 8.2539062 L 1.9003906,8.0996094 Z M 4,7.5 H 5.5 V 8.4453125 L 4,8.3007812 Z M 6,7.5 H 7.5 V 8.6367188 L 6,8.4921875 Z M 8,7.5 H 9.5 V 8.828125 L 8,8.6835938 Z M 10,7.5 H 10.544922 L 10.25,8.9003906 L 10,8.8769531 Z" style="fill:none;fill-opacity:1;stroke:#ffffff;stroke-width:3;stroke-linecap:round;stroke-linejoin:round;stroke-miterlimit:4;stroke-dasharray:none;stroke-opacity:0.50196078" inkscape:connector-curvature="0" />
  <path style="" d="M 13.412109 1.171875 A 0.55339859 0.55339859 0 0 0 13.25 1.1992188 L 11.767578 1.75 L 11.5 3 L 0 3 L 1 9 L 10 9.9003906 L 10 11 L 1.5 11 A 0.5 0.5 0 0 0 1.5 12 L 2.5195312 12 A 1 1 0 0 1 2.5195312 12.001953 A 1 1 0 0 0 2.5 12.199219 A 1 1 0 0 0 3.5 13.199219 A 1 1 0 0 0 4.5 12.199219 A 1 1 0 0 0 4.4785156 12 L 8.5195312 12 A 1 1 0 0 1 8.5195312 12.001953 A 1 1 0 0 0 8.5 12.199219 A 1 1 0 0 0 9.5 13.199219 A 1 1 0 0 0 10.5 12.199219 A 1 1 0 0 0 10.478516 12 L 11 12 L 11 10 L 12.5 3 L 12.599609 2.5996094 L 13.599609 2.25 A 0.55339859 0.55339859 0 0 0 13.412109 1.171875 z M 1.1679688 4 L 3.5 4 L 3.5 5 L 1.3457031 5 L 1.1679688 4 z M 4 4 L 5.5 4 L 5.5 5 L 4 5 L 4 4 z M 6 4 L 7.5 4 L 7.5 5 L 6 5 L 6 4 z M 8 4 L 9.5 4 L 9.5 5 L 8 5 L 8 4 z M 10 4 L 11.285156 4 L 11.074219 5 L 10 5 L 10 4 z M 1.4355469 5.5 L 3.5 5.5 L 3.5 7 L 1.703125 7 L 1.4355469 5.5 z M 4 5.5 L 5.5 5.5 L 5.5 7 L 4 7 L 4 5.5 z M 6 5.5 L 7.5 5.5 L 7.5 7 L 6 7 L 6 5.5 z M 8 5.5 L 9.5 5.5 L 9.5 7 L 8 7 L 8 5.5 z M 10 5.5 L 10.96875 5.5 L 10.652344 7 L 10 7 L 10 5.5 z M 1.7929688 7.5 L 3.5 7.5 L 3.5 8.2539062 L 1.9003906 8.0996094 L 1.7929688 7.5 z M 4 7.5 L 5.5 7.5 L 5.5 8.4453125 L 4 8.3007812 L 4 7.5 z M 6 7.5 L 7.5 7.5 L 7.5 8.6367188 L 6 8.4921875 L 6 7.5 z M 8 7.5 L 9.5 7.5 L 9.5 8.828125 L 8 8.6835938 L 8 7.5 z M 10 7.5 L 10.544922 7.5 L 10.25 8.9003906 L 10 8.8769531 L 10 7.5 z " id="rect5" />
</svg>

<svg xmlns="http://www.w3.org/2000/svg" height="14" width="14">
    <path d="M13.412 1.172a.553.553 0 00-.162.027l-1.482.551L11.5 3H0l1 6 9 .9V11H1.5a.5.5 0 000 1h1.02a1 1 0 010 .002 1 1 0 00-.02.197 1 1 0 001 1 1 1 0 001-1A1 1 0 004.479 12h4.04a1 1 0 010 .002 1 1 0 00-.019.197 1 1 0 001 1 1 1 0 001-1 1 1 0 00-.021-.199H11v-2l1.5-7 .1-.4 1-.35a.553.553 0 00-.188-1.078zM1.168 4H3.5v1H1.346zM4 4h1.5v1H4zm2 0h1.5v1H6zm2 0h1.5v1H8zm2 0h1.285l-.21 1H10zM1.436 5.5H3.5V7H1.703zM4 5.5h1.5V7H4zm2 0h1.5V7H6zm2 0h1.5V7H8zm2 0h.969L10.652 7H10zm-8.207 2H3.5v.754L1.9 8.1zM4 7.5h1.5v.945L4 8.301zm2 0h1.5v1.137L6 8.492zm2 0h1.5v1.328L8 8.684zm2 0h.545l-.295 1.4-.25-.023z" fill="none" stroke="#fff" stroke-width="3" stroke-linecap="round" stroke-linejoin="round" stroke-opacity=".5"/>
    <path d="M13.412 1.172a.553.553 0 00-.162.027l-1.482.551L11.5 3H0l1 6 9 .9V11H1.5a.5.5 0 000 1h1.02a1 1 0 010 .002 1 1 0 00-.02.197 1 1 0 001 1 1 1 0 001-1A1 1 0 004.479 12h4.04a1 1 0 010 .002 1 1 0 00-.019.197 1 1 0 001 1 1 1 0 001-1 1 1 0 00-.021-.199H11v-2l1.5-7 .1-.4 1-.35a.553.553 0 00-.188-1.078zM1.168 4H3.5v1H1.346l-.178-1zM4 4h1.5v1H4V4zm2 0h1.5v1H6V4zm2 0h1.5v1H8V4zm2 0h1.285l-.21 1H10V4zM1.436 5.5H3.5V7H1.703l-.267-1.5zM4 5.5h1.5V7H4V5.5zm2 0h1.5V7H6V5.5zm2 0h1.5V7H8V5.5zm2 0h.969L10.652 7H10V5.5zm-8.207 2H3.5v.754L1.9 8.1l-.107-.6zM4 7.5h1.5v.945L4 8.301V7.5zm2 0h1.5v1.137L6 8.492V7.5zm2 0h1.5v1.328L8 8.684V7.5zm2 0h.545l-.295 1.4-.25-.023V7.5z"/>
</svg>
